themes/default/assets/images/icons/mid/custom-software.svg

<?xml version="1.0" encoding="UTF-8"?>
<svg width="100px" height="75px" viewBox="0 0 100 75" version="1.1" xmlns="http://www.w3.org/2000/svg" xmlns:xlink="http://www.w3.org/1999/xlink">
    <!-- Generator: sketchtool 59 (101010) - https://sketch.com -->
    <title>2C2DA446-AD59-48FE-8E00-B763FB84FB92</title>
    <desc>Created with sketchtool.</desc>
    <g id="Page-1" stroke="none" stroke-width="1" fill="none" fill-rule="evenodd">
        <g id="Icons" transform="translate(-134.000000, -2716.000000)" fill-rule="nonzero">
            <g id="mid-icon-customsoftware" transform="translate(134.000000, 2716.000000)">
                <path d="M13.4,50.46 L2.52,50.46 C1.14917161,50.4657333 0.0272955879,49.3705686 0,48 L0,2.51 C0.0055073875,1.12214927 1.13213834,0 2.52,0 L64,0 C65.3878617,0 66.5144926,1.12214927 66.52,2.51 L66.52,8.51 C66.52,8.89659932 66.2065993,9.21 65.82,9.21 C65.4334007,9.21 65.12,8.89659932 65.12,8.51 L65.12,2.51 C65.12,1.89144108 64.6185589,1.39 64,1.39 L2.52,1.39 C1.90144108,1.39 1.4,1.89144108 1.4,2.51 L1.4,48 C1.4,48.2970425 1.51799966,48.5819189 1.72804041,48.7919596 C1.93808115,49.0020003 2.22295753,49.12 2.52,49.12 L13.4,49.12 C13.6682053,49.0877704 13.9310199,49.212743 14.0753037,49.4411178 C14.2195874,49.6694926 14.2195874,49.9605074 14.0753037,50.1888822 C13.9310199,50.417257 13.6682053,50.5422296 13.4,50.51 L13.4,50.46 Z" id="Path" fill="#A8C5DD"></path>
                <path d="M25.48,62.37 L15.36,62.37 C13.8964454,62.37 12.71,61.1835546 12.71,59.72 L12.71,10.72 C12.71,9.25644541 13.8964454,8.07 15.36,8.07 L81.56,8.07 C82.2628237,8.07 82.9368616,8.34919563 83.433833,8.84616703 C83.9308044,9.34313843 84.21,10.0171763 84.21,10.72 L84.21,18.59 L82.83,18.59 L82.83,10.76 C82.8300215,10.0569624 82.2630161,9.48549248 81.56,9.48 L15.36,9.48 C14.6569839,9.48549248 14.0899785,10.0569624 14.09,10.76 L14.09,59.76 C14.1062957,60.4496585 14.670149,61.0001925 15.36,61 L25.48,61 L25.48,62.37 Z" id="Path" fill="#2969F6"></path>
                <path d="M97.23,75 L27.55,75 C26.024068,75 24.7855088,73.7659221 24.78,72.24 L24.78,20.7 C24.78,19.9662666 25.0721524,19.26273 25.5919176,18.7448412 C26.1116828,18.2269524 26.8162714,17.9373415 27.55,17.9399819 L97.23,17.9399819 C97.9637286,17.9373415 98.6683172,18.2269524 99.1880824,18.7448412 C99.7078476,19.26273 100,19.9662666 100,20.7 L100,72.24 C99.9944912,73.7659221 98.755932,75 97.23,75 Z M27.55,19.33 C26.7933699,19.33 26.18,19.9433699 26.18,20.7 L26.18,72.24 C26.18,72.9966301 26.7933699,73.61 27.55,73.61 L97.23,73.61 C97.9866301,73.61 98.6,72.9966301 98.6,72.24 L98.6,20.7 C98.6,19.9433699 97.9866301,19.33 97.23,19.33 L27.55,19.33 Z" id="Shape" fill="#A8C5DD"></path>
                <path d="M59.85,28.94 L50.5,28.94 C50.148234,28.8977291 49.8835165,28.5992967 49.8835165,28.245 C49.8835165,27.8907033 50.148234,27.5922709 50.5,27.55 L59.85,27.55 C60.1182053,27.5177704 60.3810199,27.642743 60.5253037,27.8711178 C60.6695874,28.0994926 60.6695874,28.3905074 60.5253037,28.6188822 C60.3810199,28.847257 60.1182053,28.9722296 59.85,28.94 L59.85,28.94 Z" id="Path" fill="#032663"></path>
                <path d="M46.4,30.5 C45.2346792,30.5 44.29,29.5553208 44.29,28.39 C44.29,27.2246792 45.2346792,26.28 46.4,26.28 C47.5653208,26.28 48.51,27.2246792 48.51,28.39 C48.51,29.5553208 47.5653208,30.5 46.4,30.5 Z M46.4,27.67 C46.1079114,27.6659428 45.8423198,27.8387694 45.7277198,28.1074683 C45.6131198,28.3761671 45.6722271,28.6874777 45.8773354,28.8954748 C46.0824437,29.1034719 46.3928972,29.1669272 46.6631725,29.0560963 C46.9334477,28.9452654 47.1099718,28.6821168 47.11,28.39 C47.1126768,28.1999697 47.0390567,28.0167987 46.9056147,27.8814772 C46.7721726,27.7461557 46.5900492,27.6699811 46.4,27.67 Z" id="Shape" fill="#032663"></path>
                <path d="M56.47,33.86 L50.47,33.86 C50.118234,33.8177291 49.8535165,33.5192967 49.8535165,33.165 C49.8535165,32.8107033 50.118234,32.5122709 50.47,32.47 L56.47,32.47 C56.7382053,32.4377704 57.0010199,32.562743 57.1453037,32.7911178 C57.2895874,33.0194926 57.2895874,33.3105074 57.1453037,33.5388822 C57.0010199,33.767257 56.7382053,33.8922296 56.47,33.86 L56.47,33.86 Z" id="Path" fill="#032663"></path>
                <path d="M92.39,28.94 L83,28.94 C82.7317947,28.9722296 82.4689801,28.847257 82.3246963,28.6188822 C82.1804126,28.3905074 82.1804126,28.0994926 82.3246963,27.8711178 C82.4689801,27.642743 82.7317947,27.5177704 83,27.55 L92.35,27.55 C92.6182053,27.5177704 92.8810199,27.642743 93.0253037,27.8711178 C93.1695874,28.0994926 93.1695874,28.3905074 93.0253037,28.6188822 C92.8810199,28.847257 92.6182053,28.9722296 92.35,28.94 L92.39,28.94 Z" id="Path" fill="#032663"></path>
                <path d="M89,33.46 L83,33.46 C82.7317947,33.4922296 82.4689801,33.367257 82.3246963,33.1388822 C82.1804126,32.9105074 82.1804126,32.6194926 82.3246963,32.3911178 C82.4689801,32.162743 82.7317947,32.0377704 83,32.07 L89,32.07 C89.351766,32.1122709 89.6164835,32.4107033 89.6164835,32.765 C89.6164835,33.1192967 89.351766,33.4177291 89,33.46 L89,33.46 Z" id="Path" fill="#032663"></path>
                <path d="M46.4,35.2800236 C45.5407335,35.2840437 44.764011,34.7690103 44.4333132,33.9759187 C44.1026155,33.182827 44.2833572,32.268557 44.8909571,31.6609571 C45.498557,31.0533572 46.412827,30.8726155 47.2059187,31.2033132 C47.9990103,31.534011 48.5140437,32.3107335 48.5100236,33.17 C48.5100236,34.3353208 47.5653208,35.2800236 46.4,35.2800236 L46.4,35.2800236 Z M46.4,32.45 C46.1079114,32.4459428 45.8423198,32.6187694 45.7277198,32.8874683 C45.6131198,33.1561671 45.6722271,33.4674777 45.8773354,33.6754748 C46.0824437,33.8834719 46.3928972,33.9469272 46.6631725,33.8360963 C46.9334477,33.7252654 47.1099718,33.4621168 47.11,33.17 C47.1126768,32.9799697 47.0390567,32.7967987 46.9056147,32.6614772 C46.7721726,32.5261557 46.5900492,32.4499811 46.4,32.45 Z" id="Shape" fill="#032663"></path>
                <path d="M74.07,36.11 C73.83,36.11 69.35,36.03 69.07,30.81 C69.0590585,29.4398613 69.5499289,28.1130885 70.45,27.08 C72.6556066,24.96148 76.1016756,24.8408676 78.45,26.8 C79.5677311,27.9923372 80.1305486,29.6009058 80,31.23 C79.9627484,32.1032044 79.697259,32.9513914 79.23,33.69 C78.54,34.79 77.08,36.11 74.04,36.11 L74.07,36.11 Z M74.67,26.81 L74.57,26.81 C73.4117758,26.7678696 72.2859816,27.197259 71.45,28 C70.8052134,28.7557948 70.4506971,29.7165338 70.45,30.71 C70.68,34.71 73.94,34.71 74.07,34.71 L74.07,34.71 C76.01,34.71 77.36,34.11 78.07,32.94 C78.3914441,32.420369 78.5803121,31.8297275 78.62,31.22 C78.7188831,29.9679544 78.282876,28.7326012 77.42,27.82 C76.6520067,27.1680504 75.6773986,26.8101034 74.67,26.81 L74.67,26.81 Z" id="Shape" fill="#032663"></path>
                <path d="M94.51,41 L41.51,41 L41.46,69.5 L94.46,69.5 L94.51,41 Z M93.11,42.4 L93.11,60.16 C91.44,53.51 88.32,46.37 83.79,46.37 L83.62,46.37 C77.51,46.61 75.11,51.89 72.99,56.55 C71.29,60.3 69.67,63.85 66.44,64.2 C62.33,64.65 60.13,63.11 58,61.62 C56.18,60.35 54.48,59.16 51.87,59.38 C48.0070139,59.6592946 44.5816753,61.9656893 42.87,65.44 L42.87,42.38 L93.11,42.4 Z M93.11,68.11 L43.18,68.11 C44.96,63.54 47.85,61.11 51.99,60.7799942 C54.08,60.61 55.53,61.61 57.19,62.7799942 C59.43,64.34 61.96,66.11 66.59,65.6 C70.59,65.16 72.39,61.27 74.27,57.14 C76.27,52.64 78.43,47.99 83.68,47.7799942 L83.79,47.7799942 C88.7,47.77 92.51,60.66 93.07,68.1 L93.11,68.11 Z" id="Shape" fill="#032663"></path>
                <path d="M37.44,75 C37.2552548,75 37.0782179,74.9259521 36.9485265,74.794381 C36.818835,74.66281 36.7473225,74.4847258 36.75,74.3 L36.75,18.63 C36.7922709,18.278234 37.0907033,18.0135165 37.445,18.0135165 C37.7992967,18.0135165 38.0977291,18.278234 38.14,18.63 L38.14,74.3 C38.14,74.6865993 37.8265993,75 37.44,75 L37.44,75 Z" id="Path" fill="#A8C5DD"></path>
            </g>
        </g>
    </g>
</svg>

<svg width="100" height="75" xmlns="http://www.w3.org/2000/svg"><g fill-rule="nonzero" fill="none"><path d="M13.4 50.46H2.52A2.51 2.51 0 010 48V2.51A2.52 2.52 0 012.52 0H64a2.52 2.52 0 012.52 2.51v6a.7.7 0 01-1.4 0v-6A1.12 1.12 0 0064 1.39H2.52A1.12 1.12 0 001.4 2.51V48a1.12 1.12 0 001.12 1.12H13.4a.7.7 0 110 1.39v-.05z" fill="#A8C5DD"/><path d="M25.48 62.37H15.36a2.65 2.65 0 01-2.65-2.65v-49a2.65 2.65 0 012.65-2.65h66.2a2.65 2.65 0 012.65 2.65v7.87h-1.38v-7.83a1.28 1.28 0 00-1.27-1.28h-66.2a1.28 1.28 0 00-1.27 1.28v49c.016.69.58 1.24 1.27 1.24h10.12v1.37z" fill="#2969F6"/><path d="M97.23 75H27.55a2.77 2.77 0 01-2.77-2.76V20.7a2.76 2.76 0 012.77-2.76h69.68A2.76 2.76 0 01100 20.7v51.54A2.77 2.77 0 0197.23 75zM27.55 19.33a1.37 1.37 0 00-1.37 1.37v51.54c0 .757.613 1.37 1.37 1.37h69.68a1.37 1.37 0 001.37-1.37V20.7a1.37 1.37 0 00-1.37-1.37H27.55z" fill="#A8C5DD"/><path d="M59.85 28.94H50.5a.7.7 0 010-1.39h9.35a.7.7 0 110 1.39zM46.4 30.5a2.11 2.11 0 110-4.22 2.11 2.11 0 010 4.22zm0-2.83a.72.72 0 10.71.72.71.71 0 00-.71-.72zM56.47 33.86h-6a.7.7 0 010-1.39h6a.7.7 0 110 1.39zM92.39 28.94H83a.7.7 0 110-1.39h9.35a.7.7 0 110 1.39h.04zM89 33.46h-6a.7.7 0 110-1.39h6a.7.7 0 010 1.39zM46.4 35.28a2.12 2.12 0 112.11-2.11 2.11 2.11 0 01-2.11 2.11zm0-2.83a.72.72 0 10.71.72.71.71 0 00-.71-.72zM74.07 36.11c-.24 0-4.72-.08-5-5.3a5.61 5.61 0 011.38-3.73 6 6 0 018-.28A5.8 5.8 0 0180 31.23a5 5 0 01-.77 2.46c-.69 1.1-2.15 2.42-5.19 2.42h.03zm.6-9.3h-.1A4.28 4.28 0 0071.45 28a4.18 4.18 0 00-1 2.71c.23 4 3.49 4 3.62 4 1.94 0 3.29-.6 4-1.77.321-.52.51-1.11.55-1.72a4.44 4.44 0 00-1.2-3.4 4.25 4.25 0 00-2.75-1.01zM94.51 41h-53l-.05 28.5h53l.05-28.5zm-1.4 1.4v17.76c-1.67-6.65-4.79-13.79-9.32-13.79h-.17c-6.11.24-8.51 5.52-10.63 10.18-1.7 3.75-3.32 7.3-6.55 7.65-4.11.45-6.31-1.09-8.44-2.58-1.82-1.27-3.52-2.46-6.13-2.24a10.91 10.91 0 00-9 6.06V42.38l50.24.02zm0 25.71H43.18c1.78-4.57 4.67-7 8.81-7.33 2.09-.17 3.54.83 5.2 2 2.24 1.56 4.77 3.33 9.4 2.82 4-.44 5.8-4.33 7.68-8.46 2-4.5 4.16-9.15 9.41-9.36h.11c4.91-.01 8.72 12.88 9.28 20.32l.04.01z" fill="#032663"/><path d="M37.44 75a.69.69 0 01-.69-.7V18.63a.7.7 0 011.39 0V74.3a.7.7 0 01-.7.7z" fill="#A8C5DD"/></g></svg>
